X: 31408
T: Paddy Rainey's
R: jig
M: 6/8
K: Emajor
|:B3 EGB|ege f2B|def BdB|AcA EFF|
GAB EGF|GBe g2f|edB GEB,|B,GF E3:|
|:BEE EFG|BEF =DEB,|F=GB ABc|=d2=d fdB|
B3 GAB|FA=d f2f|edB GEB,|B,GF E3:|

